; generated by Slic3r Prusa Edition 1.39.2+ on 2018-05-28 at 20:24:31

; 

; external perimeters extrusion width = 0.65mm
; perimeters extrusion width = 0.65mm
; infill extrusion width = 0.65mm
; solid infill extrusion width = 0.65mm
; top infill extrusion width = 0.75mm

M107
M115 U3.1.0 ; tell printer latest fw version
M201 X9000 Y9000 Z500 E10000 ; sets maximum accelerations, mm/sec^2
M203 X500 Y500 Z12 E120 ; sets maximum feedrates, mm/sec
M204 S1500 T1500 ; sets acceleration (S) and retract acceleration (T)
M205 X10 Y10 Z0.2 E2.5 ; sets the jerk limits, mm/sec
M205 S0 T0 ; sets the minimum extruding and travel feed rate, mm/sec
M83  ; extruder relative mode
M104 S230 ; set extruder temp
M140 S85 ; set bed temp
M190 S85 ; wait for bed temp
M109 S230 ; wait for extruder temp
G28 W ; home all without mesh bed level
G80 ; mesh bed leveling
G1 Y-3.0 F1000.0 ; go outside print area
G92 E0.0
G1 X60.0 E9.0  F1000.0 ; intro line
G1 X100.0 E12.5  F1000.0 ; intro line
G92 E0.0
M900 K45; Filament gcode
G21 ; set units to millimeters
G90 ; use absolute coordinates
M83 ; use relative distances for extrusion
;BEFORE_LAYER_CHANGE
;0.2


G1 E-1.00000 F3000.00000
G1 Z0.600 F6000.000
;AFTER_LAYER_CHANGE
;0.2
G1 X62.458 Y63.706
G1 Z0.200
G1 E1.00000 F3000.00000
G1 F1500
G1 X63.194 Y63.598 E0.03753
G1 X186.901 Y63.598 E6.24463
G1 X187.885 Y63.792 E0.05063
G1 X188.726 Y64.346 E0.05082
G1 X189.292 Y65.174 E0.05063
G1 X189.504 Y66.158 E0.05082
G1 X189.504 Y143.835 E3.92104
G1 X189.417 Y144.466 E0.03214
G1 X189.179 Y145.056 E0.03214
G1 X188.805 Y145.572 E0.03214
G1 X188.314 Y145.984 E0.03234
G1 X187.643 Y146.293 E0.03733
G1 X186.908 Y146.402 E0.03753
G1 X63.087 Y146.402 E6.25034
G1 X62.448 Y146.319 E0.03254
G1 X61.849 Y146.081 E0.03254
G1 X61.329 Y145.706 E0.03234
G1 X60.914 Y145.213 E0.03254
G1 X60.605 Y144.541 E0.03733
G1 X60.496 Y143.810 E0.03733
G1 X60.496 Y66.277 E3.91378
G1 X60.586 Y65.623 E0.03334
G1 X60.839 Y65.012 E0.03334
G1 X61.214 Y64.508 E0.03174
G1 X61.787 Y64.016 E0.03811
G1 X62.424 Y63.722 E0.03543
G1 F4800
G1 X63.194 Y63.598 E-0.46281
G1 X64.014 Y63.598 E-0.48719
G1 E-0.05000 F3000.00000
G1 Z0.800 F6000.000
G1 X64.035 Y67.137
G1 Z0.200
G1 E1.00000 F3000.00000
G1 F1200
G1 X114.361 Y67.137 E2.54042
G1 X114.361 Y142.863 E3.82259
G1 X64.035 Y142.863 E2.54042
G1 X64.035 Y67.174 E3.82069
G1 X63.428 Y66.530 F6000.000
G1 F1200
G1 X114.968 Y66.530 E2.60171
G1 X114.968 Y143.470 E3.88388
G1 X63.428 Y143.470 E2.60171
G1 X63.428 Y66.567 E3.88198
G1 X63.664 Y66.610 F6000.000
G1 F4800
G1 X65.028 Y66.566 E-0.95000
G1 E-0.05000 F3000.00000
G1 Z0.800 F6000.000
G1 X114.027 Y68.701
G1 Z0.200
G1 E1.00000 F3000.00000
G1 F1200
G1 X113.070 Y67.744 E0.06855
G1 X112.209 Y67.744 E0.04358
G1 X113.754 Y69.289 E0.11063
G1 X113.754 Y70.150 E0.04358
G1 X111.348 Y67.744 E0.17227
G1 X110.487 Y67.744 E0.04358
G1 X113.754 Y71.011 E0.23390
G1 X113.754 Y71.872 E0.04358
G1 X109.626 Y67.744 E0.29554
G1 X108.765 Y67.744 E0.04358
G1 X113.754 Y72.733 E0.35717
G1 X113.754 Y73.594 E0.04358
G1 X107.904 Y67.744 E0.41881
G1 X107.043 Y67.744 E0.04358
G1 X113.754 Y74.455 E0.48044
G1 X113.754 Y75.316 E0.04358
G1 X106.182 Y67.744 E0.54208
G1 X105.321 Y67.744 E0.04358
G1 X113.754 Y76.177 E0.60371
G1 X113.754 Y77.038 E0.04358
G1 X104.460 Y67.744 E0.66535
G1 X103.599 Y67.744 E0.04358
G1 X113.754 Y77.899 E0.72698
G1 X113.754 Y78.760 E0.04358
G1 X102.738 Y67.744 E0.78862
G1 X101.877 Y67.744 E0.04358
G1 X113.754 Y79.621 E0.85025
G1 X113.754 Y80.482 E0.04358
G1 X101.016 Y67.744 E0.91189
G1 X100.155 Y67.744 E0.04358
G1 X113.754 Y81.343 E0.97352
G1 X113.754 Y82.204 E0.04358
G1 X99.294 Y67.744 E1.03516
G1 X98.434 Y67.744 E0.04358
G1 X113.754 Y83.065 E1.09679
G1 X113.754 Y83.925 E0.04358
G1 X97.573 Y67.744 E1.15843
G1 X96.712 Y67.744 E0.04358
G1 X113.754 Y84.786 E1.22006
G1 X113.754 Y85.647 E0.04358
G1 X95.851 Y67.744 E1.28170
G1 X94.990 Y67.744 E0.04358
G1 X113.754 Y86.508 E1.34333
G1 X113.754 Y87.369 E0.04358
G1 X94.129 Y67.744 E1.40497
G1 X93.268 Y67.744 E0.04358
G1 X113.754 Y88.230 E1.46660
G1 X113.754 Y89.091 E0.04358
G1 X92.407 Y67.744 E1.52824
G1 X91.546 Y67.744 E0.04358
G1 X113.754 Y89.952 E1.58987
G1 X113.754 Y90.813 E0.04358
G1 X90.685 Y67.744 E1.65151
G1 X89.824 Y67.744 E0.04358
G1 X113.754 Y91.674 E1.71314
G1 X113.754 Y92.535 E0.04358
G1 X88.963 Y67.744 E1.77478
G1 X88.102 Y67.744 E0.04358
G1 X113.754 Y93.396 E1.83641
G1 X113.754 Y94.257 E0.04358
G1 X87.241 Y67.744 E1.89805
G1 X86.380 Y67.744 E0.04358
G1 X113.754 Y95.118 E1.95968
G1 X113.754 Y95.979 E0.04358
G1 X85.519 Y67.744 E2.02132
G1 X84.658 Y67.744 E0.04358
G1 X113.754 Y96.840 E2.08295
G1 X113.754 Y97.701 E0.04358
G1 X83.797 Y67.744 E2.14459
G1 X82.936 Y67.744 E0.04358
G1 X113.754 Y98.562 E2.20622
G1 X113.754 Y99.423 E0.04358
G1 X82.075 Y67.744 E2.26786
G1 X81.214 Y67.744 E0.04358
G1 X113.754 Y100.284 E2.32949
G1 X113.754 Y101.145 E0.04358
G1 X80.353 Y67.744 E2.39113
G1 X79.492 Y67.744 E0.04358
G1 X113.754 Y102.006 E2.45276
G1 X113.754 Y102.867 E0.04358
G1 X78.631 Y67.744 E2.51440
G1 X77.771 Y67.744 E0.04358
G1 X113.754 Y103.728 E2.57603
G1 X113.754 Y104.588 E0.04358
G1 X76.910 Y67.744 E2.63767
G1 X76.049 Y67.744 E0.04358
G1 X113.754 Y105.449 E2.69930
G1 X113.754 Y106.310 E0.04358
G1 X75.188 Y67.744 E2.76094
G1 X74.327 Y67.744 E0.04358
G1 X113.754 Y107.171 E2.82257
G1 X113.754 Y108.032 E0.04358
G1 X73.466 Y67.744 E2.88421
G1 X72.605 Y67.744 E0.04358
G1 X113.754 Y108.893 E2.94584
G1 X113.754 Y109.754 E0.04358
G1 X71.744 Y67.744 E3.00748
G1 X70.883 Y67.744 E0.04358
G1 X113.754 Y110.615 E3.06911
G1 X113.754 Y111.476 E0.04358
G1 X70.022 Y67.744 E3.13075
G1 X69.161 Y67.744 E0.04358
G1 X113.754 Y112.337 E3.19238
G1 X113.754 Y113.198 E0.04358
G1 X68.300 Y67.744 E3.25402
G1 X67.439 Y67.744 E0.04358
G1 X113.754 Y114.059 E3.31565
G1 X113.754 Y114.920 E0.04358
G1 X66.578 Y67.744 E3.37729
G1 X65.717 Y67.744 E0.04358
G1 X113.754 Y115.781 E3.43892
G1 X113.754 Y116.642 E0.04358
G1 X64.856 Y67.744 E3.50056
G1 X64.642 Y67.744 E0.01085
G1 X64.642 Y68.390 E0.03273
G1 X113.754 Y117.503 E3.51590
G1 X113.754 Y118.364 E0.04358
G1 X64.642 Y69.251 E3.51590
G1 X64.642 Y70.112 E0.04358
G1 X113.754 Y119.225 E3.51590
G1 X113.754 Y120.086 E0.04358
G1 X64.642 Y70.973 E3.51590
G1 X64.642 Y71.834 E0.04358
G1 X113.754 Y120.947 E3.51590
G1 X113.754 Y121.808 E0.04358
G1 X64.642 Y72.695 E3.51590
G1 X64.642 Y73.556 E0.04358
G1 X113.754 Y122.669 E3.51590
G1 X113.754 Y123.530 E0.04358
G1 X64.642 Y74.417 E3.51590
G1 X64.642 Y75.278 E0.04358
G1 X113.754 Y124.390 E3.51590
G1 X113.754 Y125.251 E0.04358
G1 X64.642 Y76.139 E3.51590
G1 X64.642 Y77.000 E0.04358
G1 X113.754 Y126.112 E3.51590
G1 X113.754 Y126.973 E0.04358
G1 X64.642 Y77.861 E3.51590
G1 X64.642 Y78.722 E0.04358
G1 X113.754 Y127.834 E3.51590
G1 X113.754 Y128.695 E0.04358
G1 X64.642 Y79.583 E3.51590
G1 X64.642 Y80.444 E0.04358
G1 X113.754 Y129.556 E3.51590
G1 X113.754 Y130.417 E0.04358
G1 X64.642 Y81.305 E3.51590
G1 X64.642 Y82.166 E0.04358
G1 X113.754 Y131.278 E3.51590
G1 X113.754 Y132.139 E0.04358
G1 X64.642 Y83.027 E3.51590
G1 X64.642 Y83.888 E0.04358
G1 X113.754 Y133.000 E3.51590
G1 X113.754 Y133.861 E0.04358
G1 X64.642 Y84.749 E3.51590
G1 X64.642 Y85.610 E0.04358
G1 X113.754 Y134.722 E3.51590
G1 X113.754 Y135.583 E0.04358
G1 X64.642 Y86.471 E3.51590
G1 X64.642 Y87.332 E0.04358
G1 X113.754 Y136.444 E3.51590
G1 X113.754 Y137.305 E0.04358
G1 X64.642 Y88.193 E3.51590
G1 X64.642 Y89.053 E0.04358
G1 X113.754 Y138.166 E3.51590
G1 X113.754 Y139.027 E0.04358
G1 X64.642 Y89.914 E3.51590
G1 X64.642 Y90.775 E0.04358
G1 X113.754 Y139.888 E3.51590
G1 X113.754 Y140.749 E0.04358
G1 X64.642 Y91.636 E3.51590
G1 X64.642 Y92.497 E0.04358
G1 X113.754 Y141.610 E3.51590
G1 X113.754 Y142.256 E0.03273
G1 X113.540 Y142.256 E0.01085
G1 X64.642 Y93.358 E3.50055
G1 X64.642 Y94.219 E0.04358
G1 X112.679 Y142.256 E3.43892
G1 X111.818 Y142.256 E0.04358
G1 X64.642 Y95.080 E3.37728
G1 X64.642 Y95.941 E0.04358
G1 X110.957 Y142.256 E3.31564
G1 X110.096 Y142.256 E0.04358
G1 X64.642 Y96.802 E3.25401
G1 X64.642 Y97.663 E0.04358
G1 X109.235 Y142.256 E3.19237
G1 X108.374 Y142.256 E0.04358
G1 X64.642 Y98.524 E3.13074
G1 X64.642 Y99.385 E0.04358
G1 X107.513 Y142.256 E3.06910
G1 X106.652 Y142.256 E0.04358
G1 X64.642 Y100.246 E3.00747
G1 X64.642 Y101.107 E0.04358
G1 X105.791 Y142.256 E2.94583
G1 X104.930 Y142.256 E0.04358
G1 X64.642 Y101.968 E2.88420
G1 X64.642 Y102.829 E0.04358
G1 X104.069 Y142.256 E2.82256
G1 X103.208 Y142.256 E0.04358
G1 X64.642 Y103.690 E2.76093
G1 X64.642 Y104.551 E0.04358
G1 X102.347 Y142.256 E2.69929
G1 X101.486 Y142.256 E0.04358
G1 X64.642 Y105.412 E2.63766
G1 X64.642 Y106.273 E0.04358
G1 X100.625 Y142.256 E2.57602
G1 X99.764 Y142.256 E0.04358
G1 X64.642 Y107.134 E2.51439
G1 X64.642 Y107.995 E0.04358
G1 X98.904 Y142.256 E2.45275
G1 X98.043 Y142.256 E0.04358
G1 X64.642 Y108.855 E2.39112
G1 X64.642 Y109.716 E0.04358
G1 X97.182 Y142.256 E2.32948
G1 X96.321 Y142.256 E0.04358
G1 X64.642 Y110.577 E2.26785
G1 X64.642 Y111.438 E0.04358
G1 X95.460 Y142.256 E2.20621
G1 X94.599 Y142.256 E0.04358
G1 X64.642 Y112.299 E2.14458
G1 X64.642 Y113.160 E0.04358
G1 X93.738 Y142.256 E2.08294
G1 X92.877 Y142.256 E0.04358
G1 X64.642 Y114.021 E2.02131
G1 X64.642 Y114.882 E0.04358
G1 X92.016 Y142.256 E1.95967
G1 X91.155 Y142.256 E0.04358
G1 X64.642 Y115.743 E1.89804
G1 X64.642 Y116.604 E0.04358
G1 X90.294 Y142.256 E1.83640
G1 X89.433 Y142.256 E0.04358
G1 X64.642 Y117.465 E1.77477
G1 X64.642 Y118.326 E0.04358
G1 X88.572 Y142.256 E1.71313
G1 X87.711 Y142.256 E0.04358
G1 X64.642 Y119.187 E1.65150
G1 X64.642 Y120.048 E0.04358
G1 X86.850 Y142.256 E1.58986
G1 X85.989 Y142.256 E0.04358
G1 X64.642 Y120.909 E1.52823
G1 X64.642 Y121.770 E0.04358
G1 X85.128 Y142.256 E1.46659
G1 X84.267 Y142.256 E0.04358
G1 X64.642 Y122.631 E1.40496
G1 X64.642 Y123.492 E0.04358
G1 X83.406 Y142.256 E1.34332
G1 X82.545 Y142.256 E0.04358
G1 X64.642 Y124.353 E1.28169
G1 X64.642 Y125.214 E0.04358
G1 X81.684 Y142.256 E1.22005
G1 X80.823 Y142.256 E0.04358
G1 X64.642 Y126.075 E1.15842
G1 X64.642 Y126.936 E0.04358
G1 X79.962 Y142.256 E1.09678
G1 X79.101 Y142.256 E0.04358
G1 X64.642 Y127.797 E1.03515
G1 X64.642 Y128.658 E0.04358
G1 X78.241 Y142.256 E0.97351
G1 X77.380 Y142.256 E0.04358
G1 X64.642 Y129.518 E0.91188
G1 X64.642 Y130.379 E0.04358
G1 X76.519 Y142.256 E0.85024
G1 X75.658 Y142.256 E0.04358
G1 X64.642 Y131.240 E0.78861
G1 X64.642 Y132.101 E0.04358
G1 X74.797 Y142.256 E0.72697
G1 X73.936 Y142.256 E0.04358
G1 X64.642 Y132.962 E0.66534
G1 X64.642 Y133.823 E0.04358
G1 X73.075 Y142.256 E0.60370
G1 X72.214 Y142.256 E0.04358
G1 X64.642 Y134.684 E0.54207
G1 X64.642 Y135.545 E0.04358
G1 X71.353 Y142.256 E0.48043
G1 X70.492 Y142.256 E0.04358
G1 X64.642 Y136.406 E0.41880
G1 X64.642 Y137.267 E0.04358
G1 X69.631 Y142.256 E0.35716
G1 X68.770 Y142.256 E0.04358
G1 X64.642 Y138.128 E0.29553
G1 X64.642 Y138.989 E0.04358
G1 X67.909 Y142.256 E0.23389
G1 X67.048 Y142.256 E0.04358
G1 X64.642 Y139.850 E0.17226
G1 X64.642 Y140.711 E0.04358
G1 X66.187 Y142.256 E0.11062
G1 X65.326 Y142.256 E0.04358
G1 X64.369 Y141.299 E0.06855
G1 F4800
G1 X65.326 Y142.256 E-0.80399
G1 X65.572 Y142.256 E-0.14601
G1 E-0.05000 F3000.00000
G1 Z0.800 F6000.000
G1 X178.734 Y134.090
G1 Z0.200
G1 E1.00000 F3000.00000
G1 F1200
G1 X178.734 Y133.457 E0.03197
G1 X178.883 Y132.876 E0.03026
G1 X179.192 Y132.293 E0.03328
G1 X179.630 Y131.826 E0.03235
G1 X180.165 Y131.487 E0.03198
G1 X180.768 Y131.291 E0.03198
G1 X181.366 Y131.254 E0.03026
G1 X182.015 Y131.367 E0.03327
G1 X182.595 Y131.640 E0.03235
G1 X183.083 Y132.044 E0.03198
G1 X183.455 Y132.556 E0.03197
G1 X183.689 Y133.145 E0.03198
G1 X183.768 Y133.773 E0.03197
G1 X183.689 Y134.402 E0.03197
G1 X183.468 Y134.959 E0.03026
G1 X183.089 Y135.499 E0.03328
G1 X182.595 Y135.907 E0.03235
G1 X182.053 Y136.162 E0.03026
G1 X181.407 Y136.296 E0.03327
G1 X180.768 Y136.256 E0.03235
G1 X180.165 Y136.060 E0.03198
G1 X179.630 Y135.721 E0.03197
G1 X179.197 Y135.259 E0.03197
G1 X178.891 Y134.704 E0.03197
G1 X178.743 Y134.126 E0.03008
G1 X179.341 Y134.013 F6000.000
G1 F1200
G1 X179.341 Y133.533 E0.02423
G1 X179.453 Y133.097 E0.02276
G1 X179.690 Y132.650 E0.02553
G1 X180.020 Y132.298 E0.02436
G1 X180.426 Y132.041 E0.02423
G1 X180.882 Y131.892 E0.02423
G1 X181.332 Y131.864 E0.02276
G1 X181.830 Y131.951 E0.02553
G1 X182.267 Y132.156 E0.02436
G1 X182.637 Y132.462 E0.02423
G1 X182.919 Y132.851 E0.02423
G1 X183.096 Y133.297 E0.02423
G1 X183.156 Y133.773 E0.02423
G1 X183.096 Y134.250 E0.02423
G1 X182.930 Y134.669 E0.02276
G1 X182.639 Y135.083 E0.02553
G1 X182.267 Y135.390 E0.02436
G1 X181.859 Y135.582 E0.02276
G1 X181.364 Y135.685 E0.02553
G1 X180.882 Y135.655 E0.02436
G1 X180.426 Y135.506 E0.02423
G1 X180.020 Y135.249 E0.02423
G1 X179.692 Y134.899 E0.02423
G1 X179.460 Y134.478 E0.02423
G1 X179.350 Y134.050 E0.02234
G1 X179.111 Y133.917 F6000.000
G1 F4800
G1 X179.341 Y133.533 E-0.30664
G1 X179.453 Y133.097 E-0.26775
G1 X179.690 Y132.650 E-0.30032
G1 X179.777 Y132.557 E-0.07529
G1 E-0.05000 F3000.00000
G1 Z0.800 F6000.000
G1 X180.165 Y130.980
G1 Z0.200
G1 E1.00000 F3000.00000
G1 F1200
G1 X179.630 Y130.641 E0.03197
G1 X179.197 Y130.179 E0.03197
G1 X178.891 Y129.624 E0.03198
G1 X178.734 Y129.010 E0.03197
G1 X178.734 Y128.377 E0.03197
G1 X178.883 Y127.796 E0.03026
G1 X179.192 Y127.213 E0.03328
G1 X179.630 Y126.746 E0.03235
G1 X180.165 Y126.407 E0.03197
G1 X180.768 Y126.211 E0.03197
G1 X181.366 Y126.174 E0.03026
G1 X182.015 Y126.287 E0.03328
G1 X182.595 Y126.560 E0.03235
G1 X183.083 Y126.964 E0.03198
G1 X183.455 Y127.476 E0.03197
G1 X183.689 Y128.065 E0.03198
G1 X183.768 Y128.693 E0.03197
G1 X183.689 Y129.322 E0.03197
G1 X183.468 Y129.879 E0.03026
G1 X183.089 Y130.419 E0.03328
G1 X182.595 Y130.827 E0.03235
G1 X182.022 Y131.097 E0.03198
G1 X181.400 Y131.215 E0.03197
G1 X180.768 Y131.176 E0.03198
G1 X180.201 Y130.992 E0.03008
G1 X180.426 Y130.426 F6000.000
G1 F1200
G1 X180.020 Y130.169 E0.02423
G1 X179.692 Y129.819 E0.02423
G1 X179.460 Y129.398 E0.02423
G1 X179.341 Y128.933 E0.02423
G1 X179.341 Y128.453 E0.02423
G1 X179.453 Y128.017 E0.02276
G1 X179.690 Y127.570 E0.02553
G1 X180.020 Y127.218 E0.02436
G1 X180.426 Y126.961 E0.02423
G1 X180.882 Y126.812 E0.02423
G1 X181.332 Y126.784 E0.02276
G1 X181.830 Y126.871 E0.02553
G1 X182.267 Y127.076 E0.02436
G1 X182.637 Y127.382 E0.02423
G1 X182.919 Y127.771 E0.02423
G1 X183.096 Y128.217 E0.02423
G1 X183.156 Y128.693 E0.02423
G1 X183.096 Y129.170 E0.02423
G1 X182.930 Y129.589 E0.02276
G1 X182.639 Y130.003 E0.02553
G1 X182.267 Y130.310 E0.02436
G1 X181.833 Y130.515 E0.02423
G1 X181.361 Y130.605 E0.02423
G1 X180.882 Y130.575 E0.02423
G1 X180.461 Y130.438 E0.02234
G1 X180.220 Y130.569 F6000.000
G1 F4800
G1 X180.020 Y130.169 E-0.30664
G1 X179.692 Y129.819 E-0.28503
G1 X179.460 Y129.398 E-0.28503
G1 X179.430 Y129.279 E-0.07330
G1 E-0.05000 F3000.00000
G1 Z0.800 F6000.000
G1 X180.768 Y123.556
G1 Z0.200
G1 E1.00000 F3000.00000
G1 F1200
G1 X180.165 Y123.360 E0.03198
G1 X179.630 Y123.021 E0.03197
G1 X179.197 Y122.559 E0.03197
G1 X178.891 Y122.004 E0.03198
G1 X178.734 Y121.390 E0.03197
G1 X178.734 Y120.757 E0.03197
G1 X178.883 Y120.176 E0.03026
G1 X179.192 Y119.593 E0.03328
G1 X179.630 Y119.126 E0.03235
G1 X180.165 Y118.787 E0.03197
G1 X180.768 Y118.591 E0.03197
G1 X181.366 Y118.554 E0.03026
G1 X182.015 Y118.667 E0.03328
G1 X182.595 Y118.940 E0.03235
G1 X183.083 Y119.344 E0.03198
G1 X183.455 Y119.856 E0.03197
G1 X183.689 Y120.445 E0.03197
G1 X183.768 Y121.073 E0.03197
G1 X183.689 Y121.702 E0.03197
G1 X183.468 Y122.259 E0.03026
G1 X183.089 Y122.799 E0.03328
G1 X182.595 Y123.207 E0.03235
G1 X182.022 Y123.477 E0.03198
G1 X181.400 Y123.595 E0.03197
G1 X180.805 Y123.558 E0.03008
G1 X180.882 Y122.955 F6000.000
G1 F1200
G1 X180.426 Y122.806 E0.02423
G1 X180.020 Y122.549 E0.02423
G1 X179.692 Y122.199 E0.02423
G1 X179.460 Y121.778 E0.02423
G1 X179.341 Y121.313 E0.02423
G1 X179.341 Y120.833 E0.02423
G1 X179.453 Y120.397 E0.02276
G1 X179.690 Y119.950 E0.02553
G1 X180.020 Y119.598 E0.02436
G1 X180.426 Y119.341 E0.02423
G1 X180.882 Y119.192 E0.02423
G1 X181.332 Y119.164 E0.02276
G1 X181.830 Y119.251 E0.02553
G1 X182.267 Y119.456 E0.02436
